static/images/icons/logoDark.svg

<svg
	width="32"
	height="32"
	viewBox="0 0 32 32"
	fill="none"
	xmlns="http://www.w3.org/2000/svg"
>
	<path
		fill-rule="evenodd"
		clip-rule="evenodd"
		d="M6.18188 7.63637C6.18188 6.83305 6.83311 6.18182 7.63643 6.18182H24.3637C25.167 6.18182 25.8182 6.83305 25.8182 7.63637V24.3636C25.8182 25.167 25.167 25.8182 24.3637 25.8182H7.63643C6.83311 25.8182 6.18188 25.167 6.18188 24.3636V7.63637ZM9.09098 9.45455C9.09098 9.25372 9.25378 9.09091 9.45461 9.09091H11.6364C11.8373 9.09091 12.0001 9.25372 12.0001 9.45455V11.6364C12.0001 11.8372 11.8373 12 11.6364 12H9.45461C9.25378 12 9.09098 11.8372 9.09098 11.6364V9.45455ZM13.091 9.09091C12.8901 9.09091 12.7273 9.25372 12.7273 9.45455V11.6364C12.7273 11.8372 12.8901 12 13.091 12H15.2728C15.4736 12 15.6364 11.8372 15.6364 11.6364V9.45455C15.6364 9.25372 15.4736 9.09091 15.2728 9.09091H13.091ZM16.3637 9.45455C16.3637 9.25372 16.5265 9.09091 16.7273 9.09091H18.9092C19.11 9.09091 19.2728 9.25372 19.2728 9.45455V11.6364C19.2728 11.8372 19.11 12 18.9092 12H16.7273C16.5265 12 16.3637 11.8372 16.3637 11.6364V9.45455ZM9.45461 12.7273C9.25378 12.7273 9.09098 12.8901 9.09098 13.0909V15.2727C9.09098 15.4736 9.25378 15.6364 9.45461 15.6364H11.6364C11.8373 15.6364 12.0001 15.4736 12.0001 15.2727V13.0909C12.0001 12.8901 11.8373 12.7273 11.6364 12.7273H9.45461ZM12.7273 13.0909C12.7273 12.8901 12.8901 12.7273 13.091 12.7273H15.2728C15.4736 12.7273 15.6364 12.8901 15.6364 13.0909V15.2727C15.6364 15.4736 15.4736 15.6364 15.2728 15.6364H13.091C12.8901 15.6364 12.7273 15.4736 12.7273 15.2727V13.0909ZM20.3637 12.7273C20.1629 12.7273 20.0001 12.8901 20.0001 13.0909V15.2727C20.0001 15.4736 20.1629 15.6364 20.3637 15.6364H22.5455C22.7464 15.6364 22.9092 15.4736 22.9092 15.2727V13.0909C22.9092 12.8901 22.7464 12.7273 22.5455 12.7273H20.3637ZM9.09098 16.7273C9.09098 16.5264 9.25378 16.3636 9.45461 16.3636H11.6364C11.8373 16.3636 12.0001 16.5264 12.0001 16.7273V18.9091C12.0001 19.1099 11.8373 19.2727 11.6364 19.2727H9.45461C9.25378 19.2727 9.09098 19.1099 9.09098 18.9091V16.7273ZM16.7273 16.3636C16.5265 16.3636 16.3637 16.5264 16.3637 16.7273V18.9091C16.3637 19.1099 16.5265 19.2727 16.7273 19.2727H18.9092C19.11 19.2727 19.2728 19.1099 19.2728 18.9091V16.7273C19.2728 16.5264 19.11 16.3636 18.9092 16.3636H16.7273ZM20.0001 16.7273C20.0001 16.5264 20.1629 16.3636 20.3637 16.3636H22.5455C22.7464 16.3636 22.9092 16.5264 22.9092 16.7273V18.9091C22.9092 19.1099 22.7464 19.2727 22.5455 19.2727H20.3637C20.1629 19.2727 20.0001 19.1099 20.0001 18.9091V16.7273ZM13.091 20C12.8901 20 12.7273 20.1628 12.7273 20.3636V22.5455C12.7273 22.7463 12.8901 22.9091 13.091 22.9091H15.2728C15.4736 22.9091 15.6364 22.7463 15.6364 22.5455V20.3636C15.6364 20.1628 15.4736 20 15.2728 20H13.091ZM16.3637 20.3636C16.3637 20.1628 16.5265 20 16.7273 20H18.9092C19.11 20 19.2728 20.1628 19.2728 20.3636V22.5455C19.2728 22.7463 19.11 22.9091 18.9092 22.9091H16.7273C16.5265 22.9091 16.3637 22.7463 16.3637 22.5455V20.3636ZM20.3637 20C20.1629 20 20.0001 20.1628 20.0001 20.3636V22.5455C20.0001 22.7463 20.1629 22.9091 20.3637 22.9091H22.5455C22.7464 22.9091 22.9092 22.7463 22.9092 22.5455V20.3636C22.9092 20.1628 22.7464 20 22.5455 20H20.3637Z"
		fill="white"
	/>
</svg>

<svg xmlns="http://www.w3.org/2000/svg" fill="currentColor" viewBox="0 0 32 32">
	<path fill-rule="evenodd" d="M6.182 7.636c0-.803.651-1.454 1.454-1.454h16.728c.803 0 1.454.651 1.454 1.454v16.728c0 .803-.651 1.454-1.454 1.454H7.636a1.455 1.455 0 01-1.454-1.454V7.636zM9.09 9.455c0-.201.163-.364.364-.364h2.181c.201 0 .364.163.364.364v2.181c0 .201-.163.364-.364.364H9.455a.364.364 0 01-.364-.364V9.455zm4-.364c-.2 0-.364.163-.364.364v2.181c0 .201.163.364.364.364h2.182c.2 0 .363-.163.363-.364V9.455c0-.201-.162-.364-.363-.364H13.09zm3.273.364c0-.201.162-.364.363-.364h2.182c.201 0 .364.163.364.364v2.181c0 .201-.163.364-.364.364h-2.182a.364.364 0 01-.363-.364V9.455zm-6.91 3.272c-.2 0-.363.163-.363.364v2.182c0 .2.163.363.364.363h2.181c.201 0 .364-.162.364-.363V13.09c0-.2-.163-.364-.364-.364H9.455zm3.273.364c0-.2.163-.364.364-.364h2.182c.2 0 .363.163.363.364v2.182c0 .2-.162.363-.363.363H13.09a.364.364 0 01-.364-.363V13.09zm7.637-.364c-.201 0-.364.163-.364.364v2.182c0 .2.163.363.364.363h2.181c.201 0 .364-.162.364-.363V13.09c0-.2-.163-.364-.363-.364h-2.182zm-11.273 4c0-.2.163-.363.364-.363h2.181c.201 0 .364.162.364.363v2.182c0 .2-.163.364-.364.364H9.455a.364.364 0 01-.364-.364v-2.182zm7.636-.363c-.2 0-.363.162-.363.363v2.182c0 .2.162.364.363.364h2.182c.201 0 .364-.163.364-.364v-2.182c0-.2-.163-.363-.364-.363h-2.182zm3.273.363c0-.2.163-.363.364-.363h2.181c.201 0 .364.162.364.363v2.182c0 .2-.163.364-.363.364h-2.182a.364.364 0 01-.364-.364v-2.182zM13.091 20c-.2 0-.364.163-.364.364v2.181c0 .201.163.364.364.364h2.182c.2 0 .363-.163.363-.363v-2.182c0-.201-.162-.364-.363-.364H13.09zm3.273.364c0-.201.162-.364.363-.364h2.182c.201 0 .364.163.364.364v2.181c0 .201-.163.364-.364.364h-2.182a.364.364 0 01-.363-.363v-2.182zm4-.364c-.201 0-.364.163-.364.364v2.181c0 .201.163.364.364.364h2.181c.201 0 .364-.163.364-.363v-2.182c0-.201-.163-.364-.363-.364h-2.182z" clip-rule="evenodd"/>
</svg>
